X: 34544
T: Rince Éireannach
R: jig
M: 6/8
K: Gmajor
d/c/|BGG EGG|D>EG A2d/c/|BGG EGG|D>EG G B/d/|
e>gf e>BG|A>Bd d2g/f/|e>dB A>GE|DGG G2||
e/f/|g3f3|e>fe d2c/B/|A>GE E2B/A/|G>ED D2e/f/|
g3f3|e>fe b2a/g/|g>fe f^dB|e3e2||B/^d/|
e2gf2d|ABd d2e/f/|g2f e>dB|GEEE2g/e/|
d>BG A>BA|GBd e2g|dBG ABG|DEGG2||

